icons/midnadark/mimetypes/16/x-office-calendar.svg

<?xml version="1.0" encoding="UTF-8" standalone="no"?>
<!-- Created with Inkscape (http://www.inkscape.org/) -->

<svg
   xmlns:osb="http://www.openswatchbook.org/uri/2009/osb"
   xmlns:dc="http://purl.org/dc/elements/1.1/"
   xmlns:cc="http://creativecommons.org/ns#"
   xmlns:rdf="http://www.w3.org/1999/02/22-rdf-syntax-ns#"
   xmlns:svg="http://www.w3.org/2000/svg"
   xmlns="http://www.w3.org/2000/svg"
   xmlns:sodipodi="http://sodipodi.sourceforge.net/DTD/sodipodi-0.dtd"
   xmlns:inkscape="http://www.inkscape.org/namespaces/inkscape"
   width="16"
   height="16"
   id="svg2"
   version="1.1"
   inkscape:version="0.91 r13725"
   viewBox="0 0 16 16"
   sodipodi:docname="x-office-calendar.svg">
  <defs
     id="defs4">
    <linearGradient
       osb:paint="gradient"
       id="linearGradient4207">
      <stop
         id="stop3371"
         offset="0"
         style="stop-color:#3498db;stop-opacity:1;" />
      <stop
         id="stop3373"
         offset="1"
         style="stop-color:#3498db;stop-opacity:0;" />
    </linearGradient>
  </defs>
  <sodipodi:namedview
     id="base"
     pagecolor="#9c9c9c"
     bordercolor="#666666"
     borderopacity="1.0"
     inkscape:pageopacity="0"
     inkscape:pageshadow="2"
     inkscape:zoom="15.839192"
     inkscape:cx="-13.425297"
     inkscape:cy="7.5340206"
     inkscape:document-units="px"
     inkscape:current-layer="layer1-5-4"
     showgrid="false"
     inkscape:showpageshadow="false"
     borderlayer="true"
     inkscape:window-width="1366"
     inkscape:window-height="687"
     inkscape:window-x="0"
     inkscape:window-y="0"
     inkscape:window-maximized="1"
     units="px"
     inkscape:snap-bbox="true"
     inkscape:object-nodes="true"
     showguides="false">
    <inkscape:grid
       type="xygrid"
       id="grid4101" />
    <sodipodi:guide
       position="2,14.000017"
       orientation="12,0"
       id="guide4071" />
    <sodipodi:guide
       position="2,2.0000174"
       orientation="0,12"
       id="guide4073" />
    <sodipodi:guide
       position="14,2.0000174"
       orientation="-12,0"
       id="guide4075" />
    <sodipodi:guide
       position="14,14.000017"
       orientation="0,-12"
       id="guide4077" />
  </sodipodi:namedview>
  <metadata
     id="metadata7">
    <rdf:RDF>
      <cc:Work
         rdf:about="">
        <dc:format>image/svg+xml</dc:format>
        <dc:type
           rdf:resource="http://purl.org/dc/dcmitype/StillImage" />
        <dc:title />
      </cc:Work>
    </rdf:RDF>
  </metadata>
  <g
     inkscape:label="Capa 1"
     inkscape:groupmode="layer"
     id="layer1"
     transform="translate(0,-1036.3622)">
    <g
       transform="translate(-412.88298,512.00351)"
       id="layer1-4"
       inkscape:label="Capa 1">
      <g
         style="fill:#ffffff;fill-opacity:1"
         inkscape:label="Capa 1"
         id="layer1-7"
         transform="translate(392.57143,-514.5642)" />
      <g
         transform="translate(341.79698,500.25245)"
         id="g4240">
        <rect
           style="opacity:1;fill:#ffffff;fill-opacity:0.40983605;stroke:none"
           id="rect4236-8"
           width="44"
           height="1"
           x="10"
           y="3" />
        <g
           transform="translate(-392.98822,-511.27795)"
           id="layer1-1"
           inkscape:label="Capa 1"
           inkscape:transform-center-x="5.4653607"
           inkscape:transform-center-y="-9.4924686">
          <g
             style="fill:#4d4d4d;fill-opacity:1"
             inkscape:label="Capa 1"
             id="layer1-5-4"
             transform="matrix(0.71733438,0,0,0.71733438,181.16816,163.89609)">
            <g
               id="g6554"
               transform="matrix(1.0000408,0,0,1.0000408,-23.190571,-3.077281)">
              <g
                 transform="matrix(1.1424932,0,0,1.1424932,408.80852,508.24075)"
                 id="g4235"
                 style="font-style:normal;font-weight:normal;font-size:9.36996746px;line-height:125%;font-family:sans-serif;letter-spacing:0px;word-spacing:0px;fill:#ffffff;fill-opacity:1;stroke:none;stroke-width:1px;stroke-linecap:butt;stroke-linejoin:miter;stroke-opacity:1">
                <g
                   id="g4186-8"
                   transform="matrix(0.66555395,0,0,0.66555395,2.9725514,1.1461879)"
                   style="font-style:normal;font-weight:normal;font-size:9.36996746px;line-height:125%;font-family:sans-serif;letter-spacing:0px;word-spacing:0px;fill:#ffffff;fill-opacity:1;stroke:none;stroke-width:1px;stroke-linecap:butt;stroke-linejoin:miter;stroke-opacity:1">
                  <g
                     id="g4186-3"
                     transform="matrix(0,1,-1,0,48.665634,7.2669733)">
                    <g
                       transform="translate(-400.92463,-509.18113)"
                       id="layer1-38"
                       inkscape:label="Capa 1"
                       inkscape:transform-center-x="5.4653607"
                       inkscape:transform-center-y="-9.4924686">
                      <g
                         transform="translate(0.41988239,0.03484499)"
                         inkscape:label="Capa 1"
                         id="layer1-3-6">
                        <g
                           inkscape:label="Capa 1"
                           id="layer1-2"
                           transform="matrix(1.0037077,0,0,1.0037077,11.267145,17.846026)">
                          <g
                             transform="matrix(1.5263052,0,0,1.5263052,376.49864,-1040.1735)"
                             id="g4414-9">
                            <g
                               id="g4180"
                               transform="matrix(1.1526351,0,0,1.1526351,-4.8344134,-156.43331)">
                              <g
                                 transform="matrix(0.56841663,0,0,0.56841663,10.426663,1005.5718)"
                                 id="g4186-6" />
                              <g
                                 id="g4246"
                                 transform="matrix(0.49019093,0,0,0.49019093,12.268743,518.1207)">
                                <path
                                   style="opacity:1;fill:#ffffff;fill-opacity:1;fill-rule:evenodd;stroke:none;stroke-width:1px;stroke-linecap:butt;stroke-linejoin:miter;stroke-opacity:1"
                                   d="M 1.5625,0.50585938 C 0.81836169,0.45885061 0.83398438,0.76832289 0.83398438,1.4960938 l 0,6.1835937 -0.68359376,5.8515625 c 0,0.7059 0.33398673,0.711608 1.07812498,0.666016 l 13.7910154,0.04883 c 0.678104,0 0.877737,-0.03774 0.822266,-0.763672 l -0.550781,-5.8691408 0,-6.0566406 c 0.05547,-0.74842192 -0.0133,-1.05078123 -0.691407,-1.05078122 l -13.037109,0 z m 8.5,3.94335942 c 0.516169,-0.0024 0.947456,0.1508331 1.291016,0.4589843 0.343535,0.3023092 0.515584,0.6881299 0.517578,1.1582031 0.0024,0.567524 -0.254541,0.9901242 -0.769532,1.2675782 l 0.002,0.035156 c 0.281038,0.1191433 0.51082,0.3011703 0.691406,0.546875 0.186195,0.2456808 0.279814,0.5367786 0.28125,0.875 0.0024,0.5216648 -0.183967,0.9551588 -0.558594,1.3007816 -0.374469,0.33989 -0.832729,0.51126 -1.376953,0.513672 -0.38713,0.0017 -0.7631742,-0.118402 -1.1289062,-0.363281 C 8.6459832,9.9973051 8.3903801,9.6311815 8.2480469,9.1445312 L 8.9550781,8.8398438 c 0.091132,0.3206267 0.2408756,0.5693044 0.4492188,0.7460937 0.2083465,0.1767893 0.4518944,0.2649157 0.7324221,0.2636719 0.314192,-0.00137 0.58307,-0.1030293 0.80664,-0.3046875 0.22918,-0.2016582 0.343062,-0.4519054 0.341797,-0.75 C 11.283786,8.5025596 11.166055,8.2562361 10.929688,8.0566406 10.698802,7.8570177 10.41916,7.7583231 10.09375,7.7597656 l -0.4960938,0.00195 -0.00391,-0.7402344 0.4394528,-0.00195 C 10.33617,7.0181607 10.583655,6.9325871 10.779297,6.7597656 10.980544,6.5868927 11.081295,6.3569424 11.080078,6.0703125 11.07905,5.8008832 10.980345,5.589458 10.783203,5.4355469 10.591786,5.2816152 10.352546,5.2038104 10.066406,5.2050781 9.572677,5.207134 9.2401187,5.4635048 9.0683594,5.9746094 L 8.3515625,5.6699219 C 8.4624344,5.3541332 8.6602211,5.0719896 8.9453125,4.8242188 9.2304039,4.5764479 9.6024319,4.4512575 10.0625,4.4492188 Z M 5.6660156,4.46875 C 6.1990184,4.4663515 6.6368131,4.6299287 6.9804688,4.9609375 7.3241244,5.2919086 7.4980264,5.689956 7.5,6.1542969 7.5024,6.7275532 7.198584,7.3418165 6.5898438,7.9980469 L 4.9140625,9.734375 7.5820312,9.722656 l 0.00195,0.757813 -3.6679688,0.01563 -0.00391,-0.7910161 C 5.0069825,8.5708835 5.7085052,7.8316525 6.015625,7.4863281 6.2892037,7.1698165 6.4736636,6.9304665 6.5683594,6.7695312 6.6630346,6.6028636 6.7080557,6.3989739 6.7070312,6.1582031 6.7060033,5.9117034 6.611503,5.6941888 6.4199219,5.5058594 6.2283579,5.3175299 5.9721447,5.225144 5.6523438,5.2265625 5.3605948,5.2279331 5.124096,5.3176666 4.9453125,5.4960938 4.7665051,5.6688673 4.6531575,5.8557739 4.6035156,6.0566406 L 3.8945312,5.7675781 C 3.9885966,5.4575938 4.1864792,5.163227 4.4882812,4.8867188 4.7900799,4.6102105 5.1835045,4.4708881 5.6660156,4.46875 Z"
                                   transform="matrix(0,-1.6945774,1.6945774,0,8.9117104,1038.3577)"
                                   id="path4248"
                                   inkscape:connector-curvature="0" />
                                <path
                                   sodipodi:nodetypes="ccccccccc"
                                   inkscape:connector-curvature="0"
                                   id="path4248-6"
                                   d="m 33.843953,1036.9367 -2.739813,0 -2.708421,-2.2737 0,-19.9506 1.855796,-2.2737 3.592438,0 c 0.848365,-0.094 0.916631,0.023 0.916631,1.1721 l 0,22.0916 c 0.05328,1.261 -0.09168,1.2343 -0.916631,1.2343 z"
                                   style="opacity:1;fill:none;fill-opacity:1;fill-rule:evenodd;stroke:#ffffff;stroke-width:0.8117075;stroke-linecap:butt;stroke-linejoin:miter;stroke-miterlimit:4;stroke-dasharray:none;stroke-opacity:1" />
                              </g>
                            </g>
                          </g>
                        </g>
                      </g>
                    </g>
                  </g>
                  <g
                     transform="matrix(0.75387328,0,0,0.75387328,-304.49662,-389.14541)"
                     id="layer1-04"
                     inkscape:label="Capa 1"
                     inkscape:transform-center-x="4.1201906"
                     inkscape:transform-center-y="-7.1561161">
                    <g
                       transform="translate(0.41988239,0.03484499)"
                       inkscape:label="Capa 1"
                       id="layer1-3-45">
                      <g
                         transform="translate(-37.074403,0.97032551)"
                         id="layer1-7-6"
                         inkscape:label="Capa 1">
                        <g
                           transform="matrix(1.5263052,0,0,1.5263052,376.31698,-1040.1258)"
                           id="g4231-5" />
                      </g>
                      <g
                         inkscape:label="Layer 1"
                         id="layer1-1-1"
                         transform="matrix(0.61752139,0,0,0.61752139,362.64611,526.6901)">
                        <g
                           transform="matrix(1.073476,-0.00305812,0.00305812,1.073476,-1.8214625,-1.6074449)"
                           id="g4154-4">
                          <g
                             id="g4397"
                             transform="matrix(0.86413263,-0.00128877,0.00128877,0.86413263,8.0000845,-12.604254)">
                            <g
                               inkscape:label="Layer 1"
                               id="layer1-5"
                               transform="matrix(1.1790917,0.00511752,-0.00511752,1.1790917,72.285408,10.897082)">
                              <g
                                 transform="matrix(1.073476,-0.00305812,0.00305812,1.073476,-1.8214625,-1.6074449)"
                                 id="g4154-7">
                                <g
                                   id="g4397-8"
                                   transform="matrix(0.86413263,-0.00128877,0.00128877,0.86413263,8.0000845,-12.604254)">
                                <g
                                   transform="matrix(0.23482089,-2.2167066e-5,-2.2167066e-5,0.23992815,-91.1405,34.435715)"
                                   id="g4627">
                                <g
                                   style="font-style:normal;font-weight:normal;font-size:111.29611206px;line-height:125%;font-family:sans-serif;letter-spacing:0px;word-spacing:0px;fill:#144f36;fill-opacity:1;stroke:#35bb7e;stroke-width:2.01724482;stroke-linecap:butt;stroke-linejoin:miter;stroke-miterlimit:4;stroke-dasharray:none;stroke-opacity:1"
                                   id="text4367-9-0" />
                                </g>
                                </g>
                              </g>
                            </g>
                          </g>
                        </g>
                      </g>
                      <g
                         style="fill:#34b67b;fill-opacity:1;stroke:none"
                         id="g4348" />
                    </g>
                  </g>
                </g>
              </g>
            </g>
          </g>
        </g>
      </g>
    </g>
  </g>
</svg>

<svg xmlns="http://www.w3.org/2000/svg" viewBox="0 0 16 16"><g transform="translate(-71.09-24.1)"><g transform="matrix(0 .47215-.47215 0 562.93 21.496)" fill="#fff" fill-rule="evenodd"><path d="m1.563.506c-.744-.047-.729.262-.729.99v6.184l-.684 5.852c0 .706.334.712 1.078.666l13.791.049c.678 0 .878-.038.822-.764l-.551-5.869v-6.06c.055-.748-.013-1.051-.691-1.051h-13.04m8.5 3.943c.516-.002.947.151 1.291.459.344.302.516.688.518 1.158.002.568-.255.99-.77 1.268l.002.035c.281.119.511.301.691.547.186.246.28.537.281.875.002.522-.184.955-.559 1.301-.374.34-.833.511-1.377.514-.387.002-.763-.118-1.129-.363-.366-.245-.621-.611-.764-1.098l.707-.305c.091.321.241.569.449.746.208.177.452.265.732.264.314-.0001.583-.103.807-.305.229-.202.343-.452.342-.75-.0001-.292-.119-.539-.355-.738-.231-.2-.511-.298-.836-.297l-.496.002-.004-.74.439-.002c.303-.0001.55-.087.746-.26.201-.173.302-.403.301-.689-.0001-.269-.1-.481-.297-.635-.191-.154-.431-.232-.717-.23-.494.002-.826.258-.998.77l-.717-.305c.111-.316.309-.598.594-.846.285-.248.657-.373 1.117-.375m-4.396.02c.533-.002.971.161 1.314.492.344.331.518.729.52 1.193.002.573-.301 1.188-.91 1.844l-1.676 1.736 2.668-.012.002.758-3.668.016-.004-.791c1.095-1.134 1.796-1.873 2.104-2.219.274-.317.458-.556.553-.717.095-.167.14-.371.139-.611-.0001-.246-.096-.464-.287-.652-.192-.188-.448-.281-.768-.279-.292.0001-.528.091-.707.27-.179.173-.292.36-.342.561l-.709-.289c.094-.31.292-.604.594-.881.302-.277.695-.416 1.178-.418" transform="matrix(0-1.69458 1.69458 0 8.912 1038.36)" fill="#fff"/><path d="m33.844 1036.94h-2.74l-2.708-2.274v-19.951l1.856-2.274h3.592c.848-.094.917.023.917 1.172v22.09c.053 1.261-.092 1.234-.917 1.234z" fill="none" stroke="#fff" stroke-width=".812"/></g></g></svg>
